assets/icons/18px/outline/square-18px.svg

<svg fill="none" height="18" width="18" xmlns="http://www.w3.org/2000/svg"><path d="m15.207 15.207.354.354zm-12.414 0 .353-.353zm12.414-12.414-.353.353zm-10.707.207h9v-1h-9zm-1.5 10.5v-9h-1v9zm10.5 1.5h-9v1h9zm1.5-10.5v9h1v-9zm-1.5 11.5c.457 0 .85.001 1.164-.041.328-.044.642-.143.897-.398l-.707-.707c-.038.038-.106.085-.323.114-.232.03-.546.032-1.031.032zm1.5-2.5c0 .486-.001.8-.032 1.03-.03.218-.076.286-.114.324l.707.707c.255-.255.354-.57.398-.897.041-.314.041-.707.041-1.164zm-13 0c0 .457-.001.85.041 1.164.044.328.144.642.398.897l.707-.707c-.038-.038-.085-.106-.114-.323-.03-.232-.032-.546-.032-1.031zm2.5 1.5c-.486 0-.8-.001-1.03-.032-.218-.03-.285-.076-.324-.114l-.707.707c.255.255.57.354.897.398.314.041.707.041 1.164.041zm9-12c.486 0 .8.001 1.03.032.218.03.286.076.324.114l.707-.707c-.255-.254-.57-.354-.897-.398-.314-.041-.707-.041-1.164-.041zm2.5 1.5c0-.457.001-.85-.041-1.164-.044-.328-.143-.642-.398-.897l-.707.707c.038.039.085.106.114.323.03.232.032.545.032 1.031zm-11.5-2.5c-.457 0-.85-.001-1.164.041-.328.044-.642.144-.897.398l.707.707c.039-.038.106-.085.323-.114.232-.03.545-.032 1.031-.032zm-1.5 2.5c0-.486.001-.8.032-1.03.03-.218.076-.285.114-.324l-.706-.706c-.254.255-.354.57-.398.897-.042.313-.042.706-.042 1.163z" fill="#fff"/></svg>

<svg fill="none" height="18" width="18" xmlns="http://www.w3.org/2000/svg"><path d="M15.207 15.207l.354.354zm-12.414 0l.353-.353zM15.207 2.793l-.353.353zM4.5 3h9V2h-9zM3 13.5v-9H2v9zM13.5 15h-9v1h9zM15 4.5v9h1v-9zM13.5 16c.457 0 .85.001 1.164-.041.328-.044.642-.143.897-.398l-.707-.707c-.038.038-.106.085-.323.114-.232.03-.546.032-1.031.032zm1.5-2.5c0 .486-.001.8-.032 1.03-.03.218-.076.286-.114.324l.707.707c.255-.255.354-.57.398-.897C16 14.35 16 13.957 16 13.5zm-13 0c0 .457-.001.85.041 1.164.044.328.144.642.398.897l.707-.707c-.038-.038-.085-.106-.114-.323C3.002 14.299 3 13.985 3 13.5zM4.5 15c-.486 0-.8-.001-1.03-.032-.218-.03-.285-.076-.324-.114l-.707.707c.255.255.57.354.897.398C3.65 16 4.043 16 4.5 16zm9-12c.486 0 .8.001 1.03.032.218.03.286.076.324.114l.707-.707c-.255-.254-.57-.354-.897-.398C14.35 2 13.957 2 13.5 2zM16 4.5c0-.457.001-.85-.041-1.164-.044-.328-.143-.642-.398-.897l-.707.707c.038.039.085.106.114.323.03.232.032.545.032 1.031zM4.5 2c-.457 0-.85-.001-1.164.041-.328.044-.642.144-.897.398l.707.707c.039-.038.106-.085.323-.114C3.701 3.002 4.014 3 4.5 3zM3 4.5c0-.486.001-.8.032-1.03.03-.218.076-.285.114-.324L2.44 2.44c-.254.255-.354.57-.398.897C2 3.65 2 4.043 2 4.5z" fill="currentColor"/></svg>
